assets/icons/icon_bookmark_full.svg

<?xml version="1.0" encoding="UTF-8"?>
<svg id="Layer_2" data-name="Layer 2" xmlns="http://www.w3.org/2000/svg" viewBox="0 0 40 48">
  <path d="M0,0v42.35c0,.31.04.6.09.88.01.07.03.13.04.2.06.27.14.54.25.79.01.03.03.05.04.08.1.23.23.45.37.65.03.05.07.1.1.15.16.22.33.42.52.6.03.03.06.06.1.09.17.16.36.31.55.44.05.03.09.06.14.09.22.14.45.26.7.36.05.02.1.04.15.06.22.08.44.15.67.2.05.01.09.02.14.03.26.05.52.07.79.08.02,0,.05,0,.07,0,.07,0,.15,0,.23-.01.08,0,.16,0,.24-.01.12-.01.24-.03.35-.05.08-.01.15-.02.23-.04.13-.03.26-.07.39-.11.06-.02.13-.04.19-.06.19-.07.38-.16.57-.26l11.99-6.35c.34-.18.72-.27,1.1-.27s.76.09,1.1.27l11.99,6.35c.19.1.38.18.57.26.06.02.13.04.19.06.13.04.26.08.38.11.08.02.15.03.23.04.12.02.23.04.35.05.08,0,.16.01.24.01.08,0,.15.01.23.01.02,0,.05,0,.07,0,.27,0,.53-.03.79-.08.05,0,.09-.02.14-.03.23-.05.45-.12.67-.2.05-.02.1-.04.15-.06.24-.1.47-.22.69-.36.05-.03.09-.06.14-.09.19-.13.38-.28.55-.44.03-.03.07-.06.1-.09.19-.18.36-.39.52-.6.04-.05.07-.1.1-.15.14-.21.26-.42.37-.65.01-.03.03-.05.04-.08.11-.25.19-.52.25-.79.02-.07.03-.13.04-.2.05-.28.09-.58.09-.88V0H0Z"/>
</svg>

<svg width="40" height="48" viewBox="0 0 40 48" fill="none" xmlns="http://www.w3.org/2000/svg">
<g clip-path="url(#clip0_2188_3058)">
<path d="M0 0V42.35C0 42.66 0.04 42.95 0.09 43.23C0.1 43.3 0.12 43.36 0.13 43.43C0.19 43.7 0.27 43.97 0.38 44.22C0.39 44.25 0.41 44.27 0.42 44.3C0.52 44.53 0.65 44.75 0.79 44.95C0.82 45 0.86 45.05 0.89 45.1C1.05 45.32 1.22 45.52 1.41 45.7C1.44 45.73 1.47 45.76 1.51 45.79C1.68 45.95 1.87 46.1 2.06 46.23C2.11 46.26 2.15 46.29 2.2 46.32C2.42 46.46 2.65 46.58 2.9 46.68C2.95 46.7 3 46.72 3.05 46.74C3.27 46.82 3.49 46.89 3.72 46.94C3.77 46.95 3.81 46.96 3.86 46.97C4.12 47.02 4.38 47.04 4.65 47.05C4.67 47.05 4.7 47.05 4.72 47.05C4.79 47.05 4.87 47.05 4.95 47.04C5.03 47.04 5.11 47.04 5.19 47.03C5.31 47.02 5.43 47 5.54 46.98C5.62 46.97 5.69 46.96 5.77 46.94C5.9 46.91 6.03 46.87 6.16 46.83C6.22 46.81 6.29 46.79 6.35 46.77C6.54 46.7 6.73 46.61 6.92 46.51L18.91 40.16C19.25 39.98 19.63 39.89 20.01 39.89C20.39 39.89 20.77 39.98 21.11 40.16L33.1 46.51C33.29 46.61 33.48 46.69 33.67 46.77C33.73 46.79 33.8 46.81 33.86 46.83C33.99 46.87 34.12 46.91 34.24 46.94C34.32 46.96 34.39 46.97 34.47 46.98C34.59 47 34.7 47.02 34.82 47.03C34.9 47.03 34.98 47.04 35.06 47.04C35.14 47.04 35.21 47.05 35.29 47.05C35.31 47.05 35.34 47.05 35.36 47.05C35.63 47.05 35.89 47.02 36.15 46.97C36.2 46.97 36.24 46.95 36.29 46.94C36.52 46.89 36.74 46.82 36.96 46.74C37.01 46.72 37.06 46.7 37.11 46.68C37.35 46.58 37.58 46.46 37.8 46.32C37.85 46.29 37.89 46.26 37.94 46.23C38.13 46.1 38.32 45.95 38.49 45.79C38.52 45.76 38.56 45.73 38.59 45.7C38.78 45.52 38.95 45.31 39.11 45.1C39.15 45.05 39.18 45 39.21 44.95C39.35 44.74 39.47 44.53 39.58 44.3C39.59 44.27 39.61 44.25 39.62 44.22C39.73 43.97 39.81 43.7 39.87 43.43C39.89 43.36 39.9 43.3 39.91 43.23C39.96 42.95 40 42.65 40 42.35V0H0Z" fill="black"/>
</g>
<defs>
<clipPath id="clip0_2188_3058">
<rect width="40" height="48" fill="white"/>
</clipPath>
</defs>
</svg>
